assets/icons/uE006-calculator.svg

<svg xmlns="http://www.w3.org/2000/svg" width="896" height="1232" viewBox="0 0 896 1232"><path d="M308 812v-84h112v84H308zm0-140v-84h112v84H308zm0-140v-84h112v84H308zM168 812v-84h84v84h-84zm0-140v-84h84v84h-84zm0-140v-84h84v84h-84zm308 140v-84h112v84H476zm168-140v-84h84v84h-84zM476 812v-84h112v84H476zM756 56q64 0 102 38t38 102v616q0 64-38 102t-102 38H140q-64 0-102-38T0 812V196q0-64 38-102t102-38h616zm84 756V196q0-84-84-84H140q-84 0-84 84v616q0 84 84 84h616q84 0 84-84zM168 364V196h560v168H168zm476 448V588h84v224h-84zM476 532v-84h112v84H476z"/></svg>

<?xml version="1.0" encoding="UTF-8" standalone="no"?><svg   xmlns:svg="http://www.w3.org/2000/svg"   xmlns="http://www.w3.org/2000/svg"   version="1.1"   width="896"   height="1232"   viewBox="0 0 896 1232">  <path     d="M308 812V728H420V812H308zM308 672V588H420V672H308zM308 532V448H420V532H308zM168 812V728H252V812H168zM168 672V588H252V672H168zM168 532V448H252V532H168zM476 672V588H588V672H476zM644 532V448H728V532H644zM476 812V728H588V812H476zM756 56Q820 56 858 94T896 196V812Q896 876 858 914T756 952H140Q76 952 38 914T0 812V196Q0 132 38 94T140 56H756zM840 812V196Q840 112 756 112H140Q56 112 56 196V812Q56 896 140 896H756Q840 896 840 812zM168 364V196H728V364H168zM644 812V588H728V812H644zM476 532V448H588V532H476z"     id="icon131" /></svg>
